X:104
T:The Slip
M:C|
L:1/4
Q:130
K:D
dAde|f>gaf|ba g/2a/2 f|e2 d2||
e c/2d/2 eA|e c/2d/2 eA|efeb|f>e e2|f>gaf|gabB|Adcd|e>d d2||

